svg/UnitedNationsOCHA-Humanitarian/food_NFI_medicine_icon_box.svg

<svg xmlns="http://www.w3.org/2000/svg" viewBox="0 0 32 32" enable-background="new 0 0 32 32"><path fill="#407cca" d="m24.969 7.03c1.617 1.617 1.617 4.253 0 5.872l-6.03 6.03-5.872-5.872 6.04-6.03c.782-.784 1.825-1.217 2.933-1.217 1.109 0 2.153.433 2.937 1.217m7.03-.634v19.2c0 3.521-2.88 6.4-6.4 6.4h-19.2c-3.52 0-6.4-2.88-6.4-6.4v-19.2c0-3.52 2.88-6.4 6.4-6.4h19.2c3.52 0 6.4 2.88 6.4 6.4m-5.747-.65c-1.165-1.166-2.693-1.75-4.222-1.75s-3.055.584-4.219 1.75l-6.03 6.03-6.03 6.03c-2.332 2.328-2.332 6.109.0001 8.44 2.328 2.33 6.109 2.33 8.439 0l4.747-4.745 7.317-7.317c2.331-2.331 2.331-6.112.0001-8.44"/></svg>

<?xml version="1.0" encoding="utf-8"?>
<!-- Generator: Adobe Illustrator 16.0.3, SVG Export Plug-In . SVG Version: 6.00 Build 0)  -->
<!DOCTYPE svg PUBLIC "-//W3C//DTD SVG 1.1//EN" "http://www.w3.org/Graphics/SVG/1.1/DTD/svg11.dtd">
<svg version="1.1" id="Layer_1" xmlns="http://www.w3.org/2000/svg" xmlns:xlink="http://www.w3.org/1999/xlink" x="0px" y="0px"
	 width="32px" height="32px" viewBox="0 0 32 32" enable-background="new 0 0 32 32" xml:space="preserve">
<path fill="#407CCA" d="M24.969,7.034c1.617,1.617,1.617,4.253,0,5.872l-6.033,6.031l-5.872-5.872l6.035-6.031
	c0.782-0.784,1.825-1.217,2.933-1.217C23.141,5.817,24.185,6.25,24.969,7.034z M32,6.4v19.2c0,3.521-2.88,6.4-6.4,6.4H6.4
	C2.88,32,0,29.12,0,25.6V6.4C0,2.88,2.88,0,6.4,0h19.2C29.12,0,32,2.88,32,6.4z M26.253,5.75C25.088,4.584,23.56,4,22.031,4
	s-3.055,0.584-4.219,1.75l-6.033,6.031l-6.031,6.031c-2.332,2.328-2.332,6.109,0.001,8.44c2.328,2.33,6.109,2.33,8.439,0
	l4.747-4.745l7.317-7.317C28.583,11.859,28.583,8.078,26.253,5.75z"/>
</svg>
